X:1
T:Wilhelmus van Nassouwe
T:Arr. Alphons Diepenbrock (1906)
%%score [ 1 2 ( 3 4 ) ( 5 6 ) ]
L:1/8
Q:1/4=72
M:4/4
K:Bb
V:1 treble nm="Soprano" snm="S"
V:2 treble nm="Alto" snm="A"
V:3 tenor nm="Tenor" snm="T"
V:4 tenor 
V:5 bass nm="Bass" snm="B"
V:6 bass 
V:1
"^Pesante"!f! F2 | B2 B2 (cd) (ec) |!<(! d2 c d!>(! e2 d2!<)!!>)! |[M:2/4] (cB) c2 |[M:4/4] B6 F2 | %5
w: Wil-|hel- mus van _ Nas _|sau- we ben ik van|Diets _ chen|bloed. Den|
 B2 B2 (cd) (ec) |!<(! d2 cd!>(! !tenuto!e2 !tenuto!d2!<)!!>)! |[M:2/4] (cB) c2 |[M:4/4] B6 (de) | %9
w: Va- der- land _ ge _|trou- we ben ik tot|in _ den|doet. Een _|
[M:3/4]!<(! f4 !tenuto!g2!<)! |!ff! f4!>(! e2!>)! | %11
w: Prin- ce|van O-|
[M:3/2]!ff! d2 !tenuto!c!<(! !tenuto!d !tenuto!e2!>(! !tenuto!d2 !tenuto!c2 !tenuto!B2!<)!!>)! | %12
w: ran- jen ben ik vrij on- ver-|
[M:3/4]!>(! !breath!c4!f! F2!>)! | (BABc) d2 | !tenuto!c4 !tenuto!B2 | %15
w: veerd. Den|Ko _ _ _ ning|van His-|
 !tenuto!A2 !tenuto!F2 !tenuto!G !tenuto!A |!<(! !tenuto!B2 !tenuto!B2!>(! !tenuto!A2!<)!!>)! | %17
w: pan- jen heb ik|al- tijd ge-|
 !tenuto!B6 |] %18
w: eerd|
V:2
!f! F2 | F2 F2 B2 A2 |!<(! B3 B!>(! B2 B2!<)!!>)! |[M:2/4] AG A2 |[M:4/4] D6 F2 | %5
 F2 F2 B2!<(! A2!<)! | B2 B B!>(! B2 B2!>)! |[M:2/4] (AG) A2 |[M:4/4] F6 (FG) | %9
[M:3/4] !tenuto!B4 !tenuto!B2 |!ff! A4 GA | %11
[M:3/2] B2!<(! !tenuto!B B !tenuto!B2!>(! B2 !tenuto!G2 !tenuto!G2!<)!!>)! | %12
[M:3/4]!>(! !breath!A4!f! F2!>)! |!<(! F4 B2!<)! | !tenuto!A4 !tenuto!G2 | %15
 F2 D2 !tenuto!E !tenuto!F |!<(! G2 G2!>(! F2!<)!!>)! | !tenuto!F6 |] %18
V:3
!f! F,2 | D2 D2 F3 F | F2 !tenuto!E !tenuto!F !tenuto!G2 F2 |[M:2/4] F2 F2 |[M:4/4] F6 F,2 | %5
 D2 D2 F3 F |!<(! F2 !tenuto!E !tenuto!F!>(! !tenuto!G2 !tenuto!F2!<)!!>)! |[M:2/4] F3 E | %8
[M:4/4] !breath!D6 B,2 |[M:3/4] !tenuto!D4 !tenuto!E2 |!ff! !tenuto!C4 E2 | %11
[M:3/2] F2 !tenuto!E !tenuto!F !tenuto!G2 F2 !tenuto!E2 !tenuto!D2 | %12
[M:3/4]!>(! !breath!F4!f! FE!>)! |!<(! (DCDE) F2!<)! | !tenuto!F4 !tenuto!D2 | %15
 D2 F2 !tenuto!E !tenuto!E | !tenuto!D2 !tenuto!E2 !tenuto!C2 | !tenuto!D6 |] %18
V:4
 x2 | x8 | x8 |[M:2/4] x4 |[M:4/4] x8 | x8 | x8 |[M:2/4] x4 |[M:4/4] x8 |[M:3/4] x6 | x6 | %11
[M:3/2] x12 |[M:3/4] x6 | x6 | x6 | x6 | x6 | !tenuto!B,6 |] %18
V:5
!f! F,2 | B,2 G,2 F,3 F, | B,2 B, B, B,2 B,2 |[M:2/4] F,2 E,2 |[M:4/4] B,6 F,2 | %5
 (B,A,) G,2 F,3 F, | B,2 B, B, B,2 B,2 |[M:2/4] F,2 F,2 |[M:4/4] B,6 B,2 | %9
[M:3/4] !tenuto!B,4 !tenuto!E,2 | F,4 C2 | %11
[M:3/2] B,2 !tenuto!B, !tenuto!B, !tenuto!B,2 B,2 !tenuto!C2 !tenuto!G,2 | %12
[M:3/4]!>(! !breath!F,4!f! F,2!>)! | B,4 B,2 | F,4 !tenuto!G,2 | %15
 !tenuto!D,2 !tenuto!D2 !tenuto!C !tenuto!C | !tenuto!G,2 !tenuto!E,2 !tenuto!F,2 | F,6 |] %18
V:6
 x2 | x8 | x8 |[M:2/4] x4 |[M:4/4] x8 | x8 | x8 |[M:2/4] x4 |[M:4/4] x8 |[M:3/4] x6 | x6 | %11
[M:3/2] x12 |[M:3/4] x6 | x6 | x6 | x6 | x6 | B,,6 |] %18

